images/coreto.svg

<svg height="250" viewBox="0 0 250 250" width="250" xmlns="http://www.w3.org/2000/svg" xmlns:xlink="http://www.w3.org/1999/xlink"><linearGradient id="a" gradientUnits="userSpaceOnUse" x1="190.72290966873" x2="59.2328087091" y1="76.2619759859" y2="76.2619759859"><stop offset="0" stop-color="#f9f9f9"/><stop offset=".7346" stop-color="#f9f9f9" stop-opacity=".7"/><stop offset="1" stop-color="#e8ebf8" stop-opacity="0"/></linearGradient><linearGradient id="b" gradientUnits="userSpaceOnUse" x1="184.68799859663" x2="75.9900993033" y1="157.68227806667" y2="148.1723880503"><stop offset="0" stop-color="#f9f9f9"/><stop offset=".75" stop-color="#f9f9f9" stop-opacity=".8"/><stop offset="1" stop-color="#e8ebf8" stop-opacity="0"/></linearGradient><linearGradient id="c" gradientUnits="userSpaceOnUse" x1="58.0843712826" x2="188.89737853557" y1="146.9650964609" y2="128.58489451223"><stop offset="0" stop-color="#f9f9f9"/><stop offset=".75" stop-color="#f9f9f9" stop-opacity=".8"/><stop offset="1" stop-color="#e8ebf8"/></linearGradient><path d="m234.894531 78.125v89.0625c0 11.980469-6.25 22.394531-16.144531 28.644531l-93.75 53.648438-93.75-54.167969c-10.417969-5.730469-16.144531-16.667969-16.144531-28.644531v-88.542969c0-11.980469 6.25-22.394531 16.144531-28.644531l77.082031-44.792969c5.210938-2.605469 10.417969-4.167969 16.148438-4.167969 5.726562 0 11.457031 1.5625 16.144531 4.167969l77.605469 44.792969c10.414062 5.726562 16.664062 16.664062 16.664062 28.644531zm0 0" fill="#325ce8"/><path d="m190.625 94.269531c0 1.5625 0 2.605469-.519531 4.167969l-11.980469-6.769531-15.625-8.855469c-2.082031-1.042969-28.125-15.625-29.6875-16.144531-6.25-2.085938-13.542969-1.5625-19.269531 1.5625-6.25 3.644531-44.273438 23.957031-49.480469 27.601562-1.5625 1.042969-3.125 2.605469-4.6875 4.6875 0-3.644531 0-7.8125 1.5625-11.457031s4.167969-6.769531 7.8125-8.332031l47.917969-26.5625c5.207031-3.125 11.976562-3.125 17.1875 0 0 0 48.957031 27.082031 48.957031 27.082031 4.167969 2.605469 7.8125 7.8125 7.8125 13.019531zm0 0" fill="url(#a)"/><path d="m185.9375 141.667969c-6.769531 3.644531-19.792969 10.9375-26.5625 14.582031 0 0-26.042969 14.582031-26.042969 14.582031-5.207031 3.125-11.976562 3.125-17.1875 0 0 0-36.976562-20.3125-36.976562-20.3125-1.5625-1.039062-2.605469-2.601562-2.605469-4.164062v-10.417969l36.457031 20.3125c6.773438 4.167969 16.148438 4.167969 22.917969 0 0 0 32.8125-18.230469 32.8125-18.230469 5.730469-3.125 13.542969-1.5625 17.1875 3.648438zm0 0" fill="url(#b)"/><path d="m190.625 155.730469c0 4.6875-2.082031 8.332031-5.730469 11.457031-1.5625 1.5625-8.851562 5.207031-10.9375 6.25 0 0-16.664062 9.375-16.664062 9.375s-24.480469 13.542969-24.480469 13.542969c-5.207031 3.125-11.980469 3.125-17.1875 0 0 0-40.625-22.398438-40.625-22.398438s-7.292969-4.164062-7.292969-4.164062c-5.726562-3.125-9.375-8.855469-9.375-15.625v-32.292969c.523438-6.25 3.648438-12.5 9.375-15.625 3.648438-2.082031 43.230469-23.957031 47.917969-26.5625 4.167969-2.605469 9.375-3.125 14.0625-1.5625.519531-.519531 27.605469 15.105469 29.167969 15.625 6.25 3.644531 20.3125 10.9375 26.5625 14.582031-3.648438 5.730469-12.5 6.25-18.230469 2.605469 0 0-31.769531-17.707031-31.769531-17.707031-7.292969-4.167969-16.148438-4.167969-22.917969 0 0 0-36.980469 20.3125-36.980469 20.3125-3.644531 2.082031-5.726562 5.726562-5.726562 9.375v28.125c0 4.164062 2.082031 7.8125 5.726562 9.375l36.980469 20.3125c6.769531 4.164062 16.144531 4.164062 22.917969 0 0 0 26.039062-14.585938 26.039062-14.585938 4.6875-2.601562 18.230469-10.414062 22.917969-12.5 1.042969-.519531 3.644531-2.082031 4.6875-2.601562 1.5625 2.082031 1.5625 3.125 1.5625 4.6875zm0 0" fill="url(#c)"/></svg>

<!-- Generator: Adobe Illustrator 25.3.1, SVG Export Plug-In . SVG Version: 6.00 Build 0)  -->
<svg xmlns="http://www.w3.org/2000/svg" xmlns:xlink="http://www.w3.org/1999/xlink" width="250px" height="250px" viewBox="0 0 250 250" version="1.1">
<defs>
<linearGradient id="linear0" gradientUnits="userSpaceOnUse" x1="36.618801" y1="14.5423" x2="11.3727" y2="14.5423" gradientTransform="matrix(5.208333,0,0,5.208333,0,0.520835)">
<stop offset="0" style="stop-color:rgb(97.647059%,97.647059%,97.647059%);stop-opacity:1;"/>
<stop offset="0.7346" style="stop-color:rgb(97.647059%,97.647059%,97.647059%);stop-opacity:0.7;"/>
<stop offset="1" style="stop-color:rgb(90.980393%,92.156863%,97.254902%);stop-opacity:0;"/>
</linearGradient>
<linearGradient id="linear1" gradientUnits="userSpaceOnUse" x1="35.460098" y1="30.174999" x2="14.5901" y2="28.3491" gradientTransform="matrix(5.208333,0,0,5.208333,0,0.520835)">
<stop offset="0" style="stop-color:rgb(97.647059%,97.647059%,97.647059%);stop-opacity:1;"/>
<stop offset="0.75" style="stop-color:rgb(97.647059%,97.647059%,97.647059%);stop-opacity:0.8;"/>
<stop offset="1" style="stop-color:rgb(90.980393%,92.156863%,97.254902%);stop-opacity:0;"/>
</linearGradient>
<linearGradient id="linear2" gradientUnits="userSpaceOnUse" x1="11.1522" y1="28.1173" x2="36.268299" y2="24.588301" gradientTransform="matrix(5.208333,0,0,5.208333,0,0.520835)">
<stop offset="0" style="stop-color:rgb(97.647059%,97.647059%,97.647059%);stop-opacity:1;"/>
<stop offset="0.75" style="stop-color:rgb(97.647059%,97.647059%,97.647059%);stop-opacity:0.8;"/>
<stop offset="1" style="stop-color:rgb(90.980393%,92.156863%,97.254902%);stop-opacity:1;"/>
</linearGradient>
</defs>
<g id="surface1">
<path style=" stroke:none;fill-rule:nonzero;fill:rgb(19.607843%,36.078432%,90.980393%);fill-opacity:1;" d="M 234.894531 78.125 L 234.894531 167.1875 C 234.894531 179.167969 228.644531 189.582031 218.75 195.832031 L 125 249.480469 L 31.25 195.3125 C 20.832031 189.582031 15.105469 178.644531 15.105469 166.667969 L 15.105469 78.125 C 15.105469 66.144531 21.355469 55.730469 31.25 49.480469 L 108.332031 4.6875 C 113.542969 2.082031 118.75 0.519531 124.480469 0.519531 C 130.207031 0.519531 135.9375 2.082031 140.625 4.6875 L 218.230469 49.480469 C 228.644531 55.207031 234.894531 66.144531 234.894531 78.125 Z M 234.894531 78.125 "/>
<path style=" stroke:none;fill-rule:nonzero;fill:url(#linear0);" d="M 190.625 94.269531 C 190.625 95.832031 190.625 96.875 190.105469 98.4375 L 178.125 91.667969 L 162.5 82.8125 C 160.417969 81.769531 134.375 67.1875 132.8125 66.667969 C 126.5625 64.582031 119.269531 65.105469 113.542969 68.230469 C 107.292969 71.875 69.269531 92.1875 64.0625 95.832031 C 62.5 96.875 60.9375 98.4375 59.375 100.519531 C 59.375 96.875 59.375 92.707031 60.9375 89.0625 C 62.5 85.417969 65.105469 82.292969 68.75 80.730469 L 116.667969 54.167969 C 121.875 51.042969 128.644531 51.042969 133.855469 54.167969 C 133.855469 54.167969 182.8125 81.25 182.8125 81.25 C 186.980469 83.855469 190.625 89.0625 190.625 94.269531 Z M 190.625 94.269531 "/>
<path style=" stroke:none;fill-rule:nonzero;fill:url(#linear1);" d="M 185.9375 141.667969 C 179.167969 145.3125 166.144531 152.605469 159.375 156.25 C 159.375 156.25 133.332031 170.832031 133.332031 170.832031 C 128.125 173.957031 121.355469 173.957031 116.144531 170.832031 C 116.144531 170.832031 79.167969 150.519531 79.167969 150.519531 C 77.605469 149.480469 76.5625 147.917969 76.5625 146.355469 L 76.5625 135.9375 L 113.019531 156.25 C 119.792969 160.417969 129.167969 160.417969 135.9375 156.25 C 135.9375 156.25 168.75 138.019531 168.75 138.019531 C 174.480469 134.894531 182.292969 136.457031 185.9375 141.667969 Z M 185.9375 141.667969 "/>
<path style=" stroke:none;fill-rule:nonzero;fill:url(#linear2);" d="M 190.625 155.730469 C 190.625 160.417969 188.542969 164.0625 184.894531 167.1875 C 183.332031 168.75 176.042969 172.394531 173.957031 173.4375 C 173.957031 173.4375 157.292969 182.8125 157.292969 182.8125 C 157.292969 182.8125 132.8125 196.355469 132.8125 196.355469 C 127.605469 199.480469 120.832031 199.480469 115.625 196.355469 C 115.625 196.355469 75 173.957031 75 173.957031 C 75 173.957031 67.707031 169.792969 67.707031 169.792969 C 61.980469 166.667969 58.332031 160.9375 58.332031 154.167969 L 58.332031 121.875 C 58.855469 115.625 61.980469 109.375 67.707031 106.25 C 71.355469 104.167969 110.9375 82.292969 115.625 79.6875 C 119.792969 77.082031 125 76.5625 129.6875 78.125 C 130.207031 77.605469 157.292969 93.230469 158.855469 93.75 C 165.105469 97.394531 179.167969 104.6875 185.417969 108.332031 C 181.769531 114.0625 172.917969 114.582031 167.1875 110.9375 C 167.1875 110.9375 135.417969 93.230469 135.417969 93.230469 C 128.125 89.0625 119.269531 89.0625 112.5 93.230469 C 112.5 93.230469 75.519531 113.542969 75.519531 113.542969 C 71.875 115.625 69.792969 119.269531 69.792969 122.917969 C 69.792969 122.917969 69.792969 151.042969 69.792969 151.042969 C 69.792969 155.207031 71.875 158.855469 75.519531 160.417969 L 112.5 180.730469 C 119.269531 184.894531 128.644531 184.894531 135.417969 180.730469 C 135.417969 180.730469 161.457031 166.144531 161.457031 166.144531 C 166.144531 163.542969 179.6875 155.730469 184.375 153.644531 C 185.417969 153.125 188.019531 151.5625 189.0625 151.042969 C 190.625 153.125 190.625 154.167969 190.625 155.730469 Z M 190.625 155.730469 "/>
</g>
</svg>
